svg/filter.svg

<?xml version="1.0" encoding="UTF-8"?>
<svg xmlns="http://www.w3.org/2000/svg" xmlns:xlink="http://www.w3.org/1999/xlink" width="32" height="32" viewBox="0 0 32 32">
<path fill-rule="nonzero" fill="rgb(0%, 0%, 0%)" fill-opacity="1" d="M 2.558594 1.28125 C 2.175781 1.28125 1.921875 1.535156 1.921875 1.921875 L 1.921875 3.839844 C 1.921875 4.03125 1.992188 4.152344 2.121094 4.28125 L 12.359375 15.160156 C 12.476562 15.277344 12.636719 15.347656 12.800781 15.359375 L 19.199219 15.359375 C 19.390625 15.359375 19.511719 15.289062 19.640625 15.160156 L 29.878906 4.28125 C 30.007812 4.152344 30.078125 4.03125 30.078125 3.839844 L 30.078125 1.921875 C 30.078125 1.535156 29.824219 1.28125 29.441406 1.28125 Z M 12.160156 16.640625 L 12.160156 26.238281 C 12.160156 26.496094 12.289062 26.691406 12.480469 26.820312 L 18.878906 30.660156 C 18.945312 30.726562 19.070312 30.71875 19.199219 30.71875 C 19.328125 30.71875 19.390625 30.726562 19.519531 30.660156 C 19.71875 30.535156 19.839844 30.316406 19.839844 30.078125 L 19.839844 16.640625 Z M 12.160156 16.640625 "/>
</svg>

<svg role="img" viewBox="0 0 32 32" xmlns="http://www.w3.org/2000/svg"><path d="M2.559 1.281c-.383 0-.637.254-.637.64V3.84c0 .191.07.312.2.441l10.237 10.88a.7.7 0 0 0 .442.198h6.398c.192 0 .313-.07.442-.199L29.879 4.281c.129-.129.2-.25.2-.441V1.922c0-.387-.255-.64-.638-.64Zm9.601 15.36v9.597c0 .258.13.453.32.582l6.399 3.84c.066.067.191.059.32.059.13 0 .192.008.32-.059.2-.125.32-.344.32-.582V16.641Zm0 0"/></svg>
